X:10784
T:Milk Maids. BF11.34
M:2/2
L:1/8
Q:180
C:Browne A hand
S:MS11,c1800?.,Browne Coll.,Lakes
R:Reel
O:England
A:Lakes
N:The first 'F' in the second bar has a sharp before it
Z:vmp.Cherri Graebe.
K:G major
B|A/2A/2A BG cABG|AD D/2D/2D FGAF|!G/2G/2G BG cABG|Agdg BGG:|!
|:g|dgBg A/2A/2Aa2|dgdg dBdg|!(a/2g/2f/2e/2) gB A/2A/2A a2|egdg BG G:|]


